!!!!SEGMENT: pl-wumfc--n28532_karlowicz-mieczyslaw--nie-placz-nademna-op-3-no-7.krn
!!!cenid: 18xx:4251
!!!COM: Karłowicz, Mieczysław
!!!COM-rismID: pe30108288
!!!CDT: 1876/12/11-1909/02/08
!!!CNT: Polish
!!!OTL: Nie płacz nademną, op. 3 No. 7
!!!PDT: 1909
!!!AGN:
!!!YEC: Copyright 2022 Narodowy Instytut Fryderyka Chopina (https://polishscores.org)
!!!YEM: License CC-BY-4.0 (https://creativecommons.org/licenses/by/4.0)
!!!SMS-siglum: PL-Wumfc
!!!SMS-shelfmark: N28532
!!!SMS-shelfwork: W
!!!SMS-variant:
!!!SMS-altvar:
!!!NIFC-rismSourceID: 1001177562
!!!NIFC-rismChildID: 1001177562
!!!NIFC-islandoraID: pl-wumfc:9163
!!!URL-pdf-islandora: https://repozytorium.nifc.pl/islandora/object/pl-wumfc:9163/datastream/PDF/view
!!!URL-scan: https://polish.musicsources.pl/pl/lokalizacje/galeria/druki-muzyczne/12011/2 @EN{Scan on Polish Music Sources Website} @PL{Skany w portalu Dziedzictwo Muzyki Polskiej w otwartym dostępie}
!!!IIIF:
!!!ONB-nifc:
!!!AIN: 2 piano 1 vox
!!!key: a
**kern	**kern	**dynam	**kern	**text	**dynam
*part3	*part2	*	*part1	*	*
*staff3	*staff2	*	*staff1	*	*
*I"FORTEPIAN.	*I"FORTEPIAN.	*	*I"ŚPIEW.	*	*
*I'pf	*I'pf	*	*I'V	*	*
*ICklav	*ICklav	*	*ICvox	*	*
*Ipiano	*Ipiano	*	*Ivox	*	*
*clefF4	*clefG2	*	*clefG2	*	*
*k[]	*k[]	*	*k[]	*	*
*a:	*a:	*	*a:	*	*
*M4/4	*M4/4	*	*M4/4	*	*
*met(c)	*met(c)	*	*met(c)	*	*
=1	=1	=1	=1	=1	=1
!	!	!	!LO:TX:a:B:t=Moderato.	!	!
[1E 1A 1c	1d#X	p	1r	.	.
=2	=2	=2	=2	=2	=2
1E] 1G#X 1B	[1e	.	1r	.	.
=3	=3	=3	=3	=3	=3
*	*^	*	*	*	*
!	!	!	!	!	!	!LO:DY:a
1A 1c	2r	1e]	.	4e/	Nie	p
.	.	.	.	8a/	płacz	.
.	.	.	.	8b\	na-	.
.	(4a/	.	.	4cc\	-de-	.
.	[4cc/)	.	.	8a/	-mną,	.
.	.	.	.	8e/	kró-	.
=4	=4	=4	=4	=4	=4	=4
2A\ 2c	2cc/]	4f\	.	4f/	-le-	.
.	.	8g\L	.	8g/	-wno	.
.	.	[8f\J	.	8f/	ma	.
2G#X\ 2B	2b/	4f\]	.	4f/	zło-	.
.	.	4e\	.	4e/	-ta,	.
!!LO:LB:g=original	!	!	!	!	!	!
=5	=5	=5	=5	=5	=5	=5
*^	*	*	*	*	*	*
!LO:TX:t=P:problem: dashed line between 2c# (bass clef) and 4d (treble clef)	!	!	!	!	!	!	!LO:DY:a
2c#X/	2Gn\	2b-X/	4e\	<	4e/	cho-	<
.	.	.	8f\L	.	8f/	-ciaż	.
.	.	.	8g\J	.	8g/	me	.
!	!	!	!	!	!	!	!LO:HP:a
2F\	2ryy	[2a/	4a\	[ >	4a/	pier-	[ >
.	.	.	4d\	.	8d/	-si	.
.	.	.	.	]]	8d/	przy-	]]
=6	=6	=6	=6	=6	=6	=6	=6
2A/	4E\	4a/]	2cn\	.	4c/	-gnia-	.
.	4D\	(8g/L	.	.	8c/	-ta	.
.	.	8f/J	.	.	8d/	tę-	.
2G#X/	4C\	2e/)	(>2d\	.	4e/	-skno-	.
.	4BB\	.	.	.	4e/	-ta;	.
*v	*v	*	*	*	*	*	*
=7	=7	=7	=7	=7	=7	=7
!	!	!	!	!	!	!LO:HP:a
2AA\ 2E 2A	4e/	2c\)	<	4e/	cho-	<
.	8a/L	.	.	8a/	-ciaż	.
.	8b/J	.	.	8b\	w mej	.
2GG/ 2E 2G	4c/ 4cc	2e\	.	4cc\	du-	.
.	4B/ 4b	.	.	8b\	-szy	.
.	.	.	[[	8b\	i	[[
!!LO:LB:g=original	!	!	!	!	!	!
=8	=8	=8	=8	=8	=8	=8
*^	*	*	*	*	*	*
!	!	!	!	!	!	!	!LO:DY:a
4r	2FF#X\ 2F#X	4c/ 4e 4a	4ryy	mf	4a/	smu-	mf
2BB/	.	8g#X/L 8b	4A\ 4B 4d#X	.	8b\	-tno	.
.	.	8f#X/J 8a	.	.	8a/	i	.
.	2EE\ 2E	4A/ 4B 4e 4a	2ryy	.	4a/	ciem-	.
4BB/	.	4G#X/ 4g#	.	.	4g#X/	-no	.
*v	*v	*	*	*	*	*	*
=9	=9	=9	=9	=9	=9	=9
!	!	!	!	!	!	!LO:DY:a
2AA/ 2E	(4f#X/	2c\ 2e	p	4f#X/	nie	p
.	8g#X/L	.	.	8g#X/	płacz	.
.	8a/J)	.	.	8a/	na-	.
2GG#X/ 2E	(4e/ 4b	2B\	.	4b\	-de-	.
.	[<4e/)	.	.	4e/	-mną!	.
=10	=10	=10	=10	=10	=10	=10
4FF#X/ 4F#X	(4.g#X/	4A#X\ 4e]	mf >	1r	.	.
4BB/	.	4An\ 4d#X	.	.	.	.
.	8f#X/	.	.	.	.	.
4E\	2G#X/) 2e	2ryy	] p	.	.	.
4EEE/	.	.	.	.	.	.
=11	=11	=11	=11	=11	=11	=11
*	*	*^	*	*	*	*
2e>\ 2a>	(4.dd#X/	2e\ 2a	2cc/	mp	1r	.	.
.	8ee/)	.	.	.	.	.	.
4e>\ 4g#X>	4b/ 4ee	4e\ 4g#X	2ryy	.	.	.	.
4r	4e/	4ryy	.	.	.	.	.
*	*	*v	*v	*	*	*	*
!!LO:PB:g=original	!	!	!	!	!	!
=12	=12	=12	=12	=12	=12	=12
2E\ 2A	(4d#X/	2c\	.	1r	.	.
.	8e/L	.	.	.	.	.
.	8f/J)	.	.	.	.	.
2E\ 2G#X	[2e/	(4B\	>	.	.	.
.	.	8c\L	.	.	.	.
.	.	8d#\J)	]]	.	.	.
*	*v	*v	*	*	*	*
=13	=13	=13	=13	=13	=13
*^	*	*	*	*	*
!	!	!	!	!	!	!LO:DY:a
4A/	2AA\	8c/ 8e]	p	4e/	Nie	p
.	.	(>8a/L	.	.	.	.
2E/ 2A	.	8c/	.	8a/	płacz	.
.	.	8e/J)	.	8b\	na	.
.	2AA\	8r	.	4cc\	de-	.
.	.	(>8cc/L	.	.	.	.
4E/ 4A	.	8c/ 8e	.	8a/	-mną	.
.	.	8a/J)	.	8e/	niech	.
*v	*v	*	*	*	*	*
=14	=14	=14	=14	=14	=14
4AA/	8r	.	4f/	w ma-	.
.	(8ff\L	.	.	.	.
4F\ 4A 4c	8f\	.	8g/	-rzeń	.
.	8cc\J)	.	8f/	go-	.
4GG#X/	8r	.	4f/	-dzi-	.
.	(8bb\L	.	.	.	.
4E\ 4B 4e	8b\	.	4e/	-nie	.
.	8ee\J)	.	.	.	.
!!LO:LB:g=original	!	!	!	!	!
=15	=15	=15	=15	=15	=15
!	!	!	!	!	!LO:HP:a
4GGn/	8r	.	4e/	dźwięk	<
.	(8bb-X\L	<	.	.	.
4E\ 4B-X 4c#X	8b-X\	.	8f/	twe-	.
.	8cc#X\J)	.	8g/	-go	.
!	!	!	!	!	!LO:HP:a
4FF/	8r	[	4a/	gło-	[ >
.	(8aa\L	>	.	.	.
4D\ 4A 4d	8a\	.	4d/	-su	.
.	8dd\J)	]]	.	.	]]
=16	=16	=16	=16	=16	=16
4EE/ 4E	8r	.	8c/	czy-	.
.	8a\L 8cc 8aa	.	8c/	-sty	.
4DD/ 4D	8a\ 8dd 8gg	.	8c/	ku	.
.	8a\J 8dd 8ff	.	8d/	mnie	.
8CC/L 8C	4e/ 4a 4ee	.	4e/	pły-	.
8DD/ 8D	.	.	.	.	.
8CC/ 8C	4d/ 4e 4g#X	.	4e/	-nie,	.
8BBB/J 8BB	.	.	.	.	.
=17	=17	=17	=17	=17	=17
*	*^	*	*	*	*
!	!	!	!	!	!	!LO:HP:a
4AAA/ 4AA	8c/ 8e 8a	4ryy	<	4e/	z rzuć	<
.	(>[8e/L	.	.	.	.	.
4E\ 4A	8cc/	4c\ 4e]	.	8a/	z twe-	.
.	8b/J)	.	.	8b\	-go	.
4GG/	8r	4ryy	.	4cc\	ser-	.
.	(>8a/L	.	.	.	.	.
4E\ 4A 4c	8e/ 8ee	4e\	.	8cc\	-ca	.
.	8cc/J)	.	.	8cc\	tę-	.
!!LO:LB:g=original	!	!	!	!	!	!
=18	=18	=18	=18	=18	=18	=18
*^	*	*	*	*	*	*
!	!	!	!	!	!	!	!LO:DY:a
4FF/	4ryy	8r	4ryy	f	4dd\	-skno-	f
.	.	(4a/ 4aa	.	.	.	.	.
8A/L	2C\	.	8cc\L	.	8cc\	-tę	.
8B/J	.	8a-X/) 8aa-X	8dd\J	.	8dd\	da-	.
4c/	.	8g/L 8ee 8gg	2ryy	.	4ee\	-re-	.
.	.	8g/ 8cc 8ee	.	.	.	.	.
4CC/ 4C	4ryy	8e/ 8g 8cc	.	.	4cc\	-mną:	.
.	.	8c/J 8e 8g	.	.	.	.	.
*v	*v	*	*	*	*	*	*
=19	=19	=19	=19	=19	=19	=19
!	!LO:TX:a:i:t=rit.	!	!	!LO:TX:a:i:t=rit.	!	!LO:HP:a
4DD/ 4D	(4f/	2A\ 2c	>	4a/	nie	>
4DD#X/ 4D#X	8g/L	.	.	8g/	płacz	.
.	8f/J)	.	.	8f/	na	.
2EE/ 2E	(4d#X/	2A\ 2c	.	4d#X/	de-	.
.	4e/)	.	]]	4e/	-mną!	]]
*	*v	*v	*	*	*	*
=20	=20	=20	=20	=20	=20
*^	*	*	*	*	*
*	*^	*	*	*	*	*
!	!	!	!LO:TX:a:i:t=a tempo	!	!	!	!
2E/	4r	4G#X/	(>8e/L	p	1r;	.	.
.	.	.	8g#X/	.	.	.	.
.	4EE\	2.ryy	8d/ 8b	.	.	.	.
.	.	.	8e/J) 8cc	.	.	.	.
.	.	.	(8qe/ 8qcc	.	.	.	.
2E;</	2AA\	.	2c;/) 2a	.	.	.	.
*v	*v	*v	*	*	*	*	*
==	==	==	==	==	==
*-	*-	*-	*-	*-	*-
!!!system-decoration: s1{(s2,s3)}
!!!RDF**kern: > = above
!!!RDF**kern: < = below
!!!ENC: Filip Voros
!!!END: 2022-11-23
!!!ENC: Jan Barakat
!!!END: 2022-12-08
